assets/gates/Adder32bit.svg

<?xml version="1.0" encoding="UTF-8" standalone="no"?>
<svg
   width="500"
   height="500"
   viewBox="0 0 500 500"
   version="1.1"
   id="svg5"
   sodipodi:docname="Adder32bit.svg"
   inkscape:version="1.4.3 (1:1.4.3+202512261035+0d15f75042)"
   xmlns:inkscape="http://www.inkscape.org/namespaces/inkscape"
   xmlns:sodipodi="http://sodipodi.sourceforge.net/DTD/sodipodi-0.dtd"
   xmlns="http://www.w3.org/2000/svg"
   xmlns:svg="http://www.w3.org/2000/svg">
  <defs
     id="defs5" />
  <sodipodi:namedview
     id="namedview5"
     pagecolor="#ffffff"
     bordercolor="#000000"
     borderopacity="0.25"
     inkscape:showpageshadow="2"
     inkscape:pageopacity="0.0"
     inkscape:pagecheckerboard="0"
     inkscape:deskcolor="#d1d1d1"
     inkscape:zoom="1.606"
     inkscape:cx="249.68867"
     inkscape:cy="200.1868"
     inkscape:window-width="1854"
     inkscape:window-height="1011"
     inkscape:window-x="0"
     inkscape:window-y="0"
     inkscape:window-maximized="1"
     inkscape:current-layer="g5" />
  <g
     transform="scale(1,-1) translate(0,-500)"
     id="g5">
    <path
       d="M 21.376511 27.543045 L 281.513257 27.543045 C 279.094789 27.543045 277.134249 25.480601 277.134249 22.936448 L 277.134249 287.063553 C 277.134249 284.519390 279.094789 282.456956 281.513257 282.456956 L 21.376511 282.456956 C 23.794970 282.456956 25.755519 284.519390 25.755519 287.063553 L 25.755519 22.936448 C 25.755519 25.480601 23.794970 27.543045 21.376511 27.543045 Z M 21.376511 1.950841 C 10.359086 1.950841 1.427699 11.346417 1.427699 22.936448 L 1.427699 287.063553 C 1.427699 298.653584 10.359086 308.049159 21.376511 308.049159 L 281.513257 308.049159 C 292.530683 308.049159 301.462070 298.653584 301.462070 287.063553 L 301.462070 22.936448 C 301.462070 11.346417 292.530683 1.950841 281.513257 1.950841 L 21.376511 1.950841 Z"
       transform="scale(1.000000,1.000000) translate(93.000000,95.000000)"
       opacity="1.000000"
       id="path1"
       inkscape:label="bounding_box"> fill=&quot;currentColor&quot;</path>
    <path
       d="m 10.780623,19.791585 h 85.647082 c 4.903975,0 8.879435,-4.182076 8.879435,-9.340928 0,-5.158854 -3.97546,-9.34093 -8.879435,-9.34093 H 10.780623 c -4.90398,0 -8.879441,4.182076 -8.879441,9.34093 0,5.158852 3.975461,9.340928 8.879441,9.340928 z"
       transform="translate(12,140)"
       opacity="1"
       id="path3"
       inkscape:label="input3"
       style="display:inline"> fill=&quot;currentColor&quot;</path>
    <path
       d="m 22.570598,259.80946 h 85.647082 c 4.90398,0 8.87944,-4.18208 8.87944,-9.34093 0,-5.15885 -3.97546,-9.34093 -8.87944,-9.34093 H 22.570598 c -4.90398,0 -8.87944,4.18208 -8.87944,9.34093 0,5.15885 3.97546,9.34093 8.87944,9.34093 z"
       opacity="1"
       id="path2-6"
       inkscape:label="input2"
       style="display:inline"> fill=&quot;currentColor&quot;</path>
    <path
       d="m 10.427682,19.71599 h 85.64708 c 4.903978,0 8.879438,-4.182076 8.879438,-9.340929 0,-5.158853 -3.97546,-9.34093 -8.879438,-9.34093 h -85.64708 c -4.90398,0 -8.879441,4.182077 -8.879441,9.34093 0,5.158853 3.975461,9.340929 8.879441,9.340929 z"
       transform="translate(14,335)"
       opacity="1"
       id="path2"
       inkscape:label="input1"
       style="display:inline"> fill=&quot;currentColor&quot;</path>
    <path
       d="m 381.44893,311.88829 h 91.4118 c 4.90398,0 8.87944,-4.18208 8.87944,-9.34093 0,-5.15885 -3.97546,-9.34093 -8.87944,-9.34093 h -91.4118 c -4.90397,0 -8.87944,4.18208 -8.87944,9.34093 0,5.15885 3.97547,9.34093 8.87944,9.34093 z"
       opacity="1"
       id="path4"
       style="display:inline"
       inkscape:label="out_sum"> fill=&quot;currentColor&quot;</path>
    <path
       d="m 18.557025,140.00627 q -1.810974,-2.41463 -1.735516,-6.45159 H 6.785696 q 0.150914,4.07469 1.395959,7.73436 1.320501,3.20694 4.150148,5.9234 2.112803,1.92416 5.017906,2.94283 2.905104,1.01867 7.130709,1.01867 7.847553,0 12.657952,-4.05583 4.810399,-4.05582 4.810399,-10.8847 0,-4.82926 -2.867375,-8.14938 -1.810974,-2.07508 -3.772862,-2.82965 1.471416,0 4.225605,-2.52782 4.11242,-3.81059 4.11242,-10.4131 0,-6.94206 -4.810399,-12.2052 -4.810399,-5.263146 -14.242554,-5.263146 -11.620415,0 -16.147849,7.583456 -2.376903,4.03696 -2.641003,10.56401 h 10.564013 q 0,-3.28239 1.056401,-5.43292 1.961889,-3.96151 7.130709,-3.96151 3.169204,0 5.527243,2.1694 2.358039,2.16939 2.358039,6.24409 0,5.39519 -4.37652,7.20616 -2.490089,1.01867 -7.847553,1.01867 v 7.69664 q 5.244278,0.0755 7.319352,1.01867 3.584219,1.58461 3.584219,6.41387 0,3.13148 -1.829838,5.09336 -1.829838,1.96189 -5.149956,1.96189 -3.810591,0 -5.583836,-2.41463 z M 73.60308,139.7799 q -1.92416,2.30144 -5.508378,2.30144 -4.904721,0 -6.677966,-3.65967 -1.018673,-2.1128 -1.207316,-6.7157 H 49.758593 q 0.2641,6.9798 2.527817,11.28086 4.301063,8.18711 15.280091,8.18711 8.677582,0 13.808674,-4.8104 5.131093,-4.8104 5.131093,-12.73341 0,-6.0743 -3.621948,-10.79038 -2.376903,-3.13148 -7.809824,-6.97979 l -4.301063,-3.05602 q -4.036962,-2.86738 -5.527242,-4.15015 -1.490281,-1.28277 -2.508953,-2.98056 H 86.619453 V 96.203344 H 49.154935 q 0.150914,5.885666 2.527817,10.752656 2.301446,5.47065 10.865843,11.58269 7.432537,5.31973 9.620797,7.62118 3.357847,3.58422 3.357847,7.84755 0,3.47103 -1.924159,5.77248 z M 91.486445,122.83975 H 113.14267 V 112.65302 H 91.486445 Z M 146.72114,96.203344 h -25.20271 v 55.611986 h 27.01369 q 10.22445,-0.15092 14.48779,-5.9234 2.56554,-3.54649 2.56554,-8.48893 0,-5.09337 -2.56554,-8.18711 -1.43369,-1.73552 -4.22561,-3.16921 4.26333,-1.54687 6.43273,-4.90472 2.1694,-3.35785 2.1694,-8.14938 0,-4.94245 -2.49009,-8.86623 -1.58461,-2.60327 -3.96151,-4.376516 -2.67873,-2.037345 -6.31954,-2.791917 -3.64081,-0.754573 -7.90415,-0.754573 z m -0.2641,24.485876 h -13.8464 v -14.82735 h 13.65776 q 3.65968,0 5.69702,0.98095 3.69741,1.81097 3.69741,6.94206 0,4.33879 -3.58422,5.96112 -1.99962,0.90549 -5.62157,0.94322 z m 5.77248,10.60174 q 2.26372,1.35823 2.26372,4.86699 0,3.88605 -3.01829,5.13109 -2.60328,0.86776 -6.64024,0.86776 H 132.61064 V 129.895 h 13.65776 q 3.65968,0 5.96112,1.39596 z m 35.08762,6.03658 V 96.203344 h -10.90357 v 41.124196 z m 0,14.82735 v -9.92263 h -10.90357 v 9.92263 z m 29.23968,-48.29264 v -8.036192 l -5.09337,-0.188643 q -7.62118,-0.2641 -10.4131,2.641003 -1.81097,1.848702 -1.81097,5.697022 v 25.3159 h -5.73475 v 7.65891 h 5.73475 v 11.4695 h 10.63947 v -11.4695 h 6.67797 v -7.65891 h -6.67797 v -21.73168 q 0,-2.52782 0.64139,-3.15034 0.64138,-0.62252 3.92377,-0.62252 0.49048,0 1.03754,0.0189 0.54707,0.0189 1.07527,0.0566 z M 37.930671,14.635116 H 17.444031 L 13.595712,3.203344 H 1.447096 L 21.29235,58.815328 H 34.421909 L 54.116248,3.203344 H 41.51489 Z M 34.68601,24.218185 27.743944,46.100784 20.575506,24.218185 Z M 97.730532,58.739871 V 3.203344 H 87.279704 V 8.900366 Q 84.978258,5.24069 82.035426,3.58063 79.092594,1.920571 74.716074,1.920571 q -7.206166,0 -12.129751,5.829072 -4.923585,5.829071 -4.923585,14.959397 0,10.526285 4.848128,16.562864 4.848127,6.036579 12.959781,6.036579 3.735133,0 6.640236,-1.641195 2.905104,-1.641195 4.716078,-4.546299 v 19.618882 z m -28.97558,-35.23853 q 0,-5.697021 2.263717,-9.092597 2.225989,-3.433304 6.791152,-3.433304 4.565163,0 6.942066,3.395575 2.376903,3.395576 2.376903,8.790769 0,7.545723 -3.810591,10.790385 -2.339174,1.961888 -5.432921,1.961888 -4.716077,0 -6.923201,-3.565355 -2.207125,-3.565354 -2.207125,-8.847361 z m 76.174078,35.23853 V 3.203344 H 134.47821 V 8.900366 Q 132.17676,5.24069 129.23393,3.58063 126.2911,1.920571 121.91458,1.920571 q -7.20617,0 -12.12976,5.829072 -4.92358,5.829071 -4.92358,14.959397 0,10.526285 4.84813,16.562864 4.84813,6.036579 12.95978,6.036579 3.73513,0 6.64024,-1.641195 2.9051,-1.641195 4.71607,-4.546299 v 19.618882 z m -28.97557,-35.23853 q 0,-5.697021 2.26371,-9.092597 2.22599,-3.433304 6.79115,-3.433304 4.56517,0 6.94207,3.395575 2.3769,3.395576 2.3769,8.790769 0,7.545723 -3.81059,10.790385 -2.33917,1.961888 -5.43292,1.961888 -4.71608,0 -6.9232,-3.565355 -2.20712,-3.565354 -2.20712,-8.847361 z m 73.94809,-8.224839 q -0.41502,-3.659676 -3.81059,-7.432538 -5.28201,-5.99885 -14.78962,-5.99885 -7.84755,0 -13.84641,5.055635 -5.99885,5.055635 -5.99885,16.449678 0,10.677199 5.41406,16.37422 5.41406,5.697022 14.05391,5.697022 5.13109,0 9.24351,-1.92416 4.11242,-1.924159 6.79115,-6.074307 2.41464,-3.659676 3.13148,-8.48894 0.41501,-2.829646 0.33956,-8.149381 H 162.2842 q 0.22637,-6.187494 3.88605,-8.677583 2.22598,-1.546873 5.35746,-1.546873 3.32012,0 5.39519,1.886431 1.13186,1.018673 1.99962,2.829646 z m -10.63947,12.601359 q -0.2641,4.263334 -2.58441,6.470458 -2.32031,2.207124 -5.75362,2.207124 -3.73513,0 -5.79134,-2.339174 -2.05621,-2.339174 -2.58441,-6.338408 z m 39.08685,6.527051 q -6.48933,0 -8.71532,-4.225605 -1.24504,-2.376903 -1.24504,-7.319352 V 3.203344 h -10.82811 v 41.124195 h 10.26218 v -7.168438 q 2.49009,4.11242 4.33879,5.621564 3.01829,2.527818 7.84755,2.527818 0.30183,0 0.50934,-0.01886 0.20751,-0.01887 0.92435,-0.05659 V 34.216269 q -1.01867,0.113186 -1.81097,0.150914 -0.7923,0.03773 -1.28277,0.03773 z"
       opacity="1"
       id="path5"
       transform="translate(133,173)"
       style="display:inline"> fill=&quot;currentColor&quot;</path>
    <path
       d="m 381.96163,212.48692 h 91.41179 c 4.90398,0 8.87944,-4.18208 8.87944,-9.34093 0,-5.15886 -3.97546,-9.34093 -8.87944,-9.34093 h -91.41179 c -4.90398,0 -8.87944,4.18207 -8.87944,9.34093 0,5.15885 3.97546,9.34093 8.87944,9.34093 z"
       opacity="1"
       id="path4-5"
       style="display:inline"
       inkscape:label="carry_out"> fill=&quot;currentColor&quot;</path>
  </g>
</svg>

<?xml version="1.0" encoding="UTF-8" standalone="yes"?>
<!DOCTYPE svg PUBLIC "-//W3C//DTD SVG 1.1//EN" "http://www.w3.org/Graphics/SVG/1.1/DTD/svg11.dtd">

<svg width="500" height="500" viewBox="0 0 500 500" xmlns="http://www.w3.org/2000/svg" xmlns:xlink="http://www.w3.org/1999/xlink" version="1.1" baseProfile="full">
    <g transform="scale(1,-1) translate(0,-500)">
        <path d="M 21.376511 27.543045 L 281.513257 27.543045 C 279.094789 27.543045 277.134249 25.480601 277.134249 22.936448 L 277.134249 287.063553 C 277.134249 284.519390 279.094789 282.456956 281.513257 282.456956 L 21.376511 282.456956 C 23.794970 282.456956 25.755519 284.519390 25.755519 287.063553 L 25.755519 22.936448 C 25.755519 25.480601 23.794970 27.543045 21.376511 27.543045 Z M 21.376511 1.950841 C 10.359086 1.950841 1.427699 11.346417 1.427699 22.936448 L 1.427699 287.063553 C 1.427699 298.653584 10.359086 308.049159 21.376511 308.049159 L 281.513257 308.049159 C 292.530683 308.049159 301.462070 298.653584 301.462070 287.063553 L 301.462070 22.936448 C 301.462070 11.346417 292.530683 1.950841 281.513257 1.950841 L 21.376511 1.950841 Z" transform="scale(1.000000,1.000000) translate(93.000000,95.000000)" opacity="1.000000"> fill="currentColor"</path>
        <path d="M 10.427682 19.715990 L 96.074762 19.715990 C 100.978740 19.715990 104.954202 15.533914 104.954202 10.375061 C 104.954202 5.216208 100.978740 1.034131 96.074762 1.034131 L 10.427682 1.034131 C 5.523702 1.034131 1.548241 5.216208 1.548241 10.375061 C 1.548241 15.533914 5.523702 19.715990 10.427682 19.715990 Z" transform="scale(1.000000,1.000000) translate(14.000000,335.000000)" opacity="1.000000"> fill="currentColor"</path>
        <path d="M 10.780623 19.791585 L 96.427705 19.791585 C 101.331682 19.791585 105.307144 15.609509 105.307144 10.450657 C 105.307144 5.291803 101.331682 1.109727 96.427705 1.109727 L 10.780623 1.109727 C 5.876643 1.109727 1.901182 5.291803 1.901182 10.450657 C 1.901182 15.609509 5.876643 19.791585 10.780623 19.791585 Z" transform="scale(1.000000,1.000000) translate(12.000000,140.000000)" opacity="1.000000"> fill="currentColor"</path>
        <path d="M 10.807589 20.244456 L 102.219379 20.244456 C 107.123356 20.244456 111.098818 16.062379 111.098818 10.903527 C 111.098818 5.744674 107.123356 1.562597 102.219379 1.562597 L 10.807589 1.562597 C 5.903610 1.562597 1.928148 5.744674 1.928148 10.903527 C 1.928148 16.062379 5.903610 20.244456 10.807589 20.244456 Z" transform="scale(1.000000,1.000000) translate(375.000000,230.000000)" opacity="1.000000"> fill="currentColor"</path>
        <path d="M 18.557025 140.006271 Q 16.746051 137.591639 16.821509 133.554677 L 6.785696 133.554677 Q 6.936610 137.629368 8.181655 141.289044 Q 9.502156 144.495976 12.331803 147.212437 Q 14.444606 149.136596 17.349709 150.155269 Q 20.254813 151.173942 24.480418 151.173942 Q 32.327971 151.173942 37.138370 147.118115 Q 41.948769 143.062289 41.948769 136.233409 Q 41.948769 131.404146 39.081394 128.084027 Q 37.270420 126.008953 35.308532 125.254381 Q 36.779948 125.254381 39.534137 122.726563 Q 43.646557 118.915973 43.646557 112.313465 Q 43.646557 105.371399 38.836158 100.108256 Q 34.025759 94.845114 24.593604 94.845114 Q 12.973189 94.845114 8.445755 102.428566 Q 6.068852 106.465529 5.804752 112.992580 L 16.368765 112.992580 Q 16.368765 109.710190 17.425166 107.559659 Q 19.387055 103.598154 24.555875 103.598154 Q 27.725079 103.598154 30.083118 105.767549 Q 32.441157 107.936945 32.441157 112.011636 Q 32.441157 117.406828 28.064637 119.217802 Q 25.574548 120.236474 20.217084 120.236474 L 20.217084 127.933113 Q 25.461362 128.008570 27.536436 128.951785 Q 31.120655 130.536387 31.120655 135.365651 Q 31.120655 138.497126 29.290817 140.459014 Q 27.460979 142.420902 24.140861 142.420902 Q 20.330270 142.420902 18.557025 140.006271 Z M 73.603080 139.779899 Q 71.678920 142.081345 68.094702 142.081345 Q 63.189981 142.081345 61.416736 138.421669 Q 60.398063 136.308866 60.209420 131.705975 L 49.758593 131.705975 Q 50.022693 138.685769 52.286410 142.986832 Q 56.587473 151.173942 67.566501 151.173942 Q 76.244083 151.173942 81.375175 146.363543 Q 86.506268 141.553144 86.506268 133.630134 Q 86.506268 127.555827 82.884320 122.839749 Q 80.507417 119.708274 75.074496 115.859955 L 70.773433 112.803937 Q 66.736471 109.936562 65.246191 108.653788 Q 63.755910 107.371015 62.737238 105.673228 L 86.619453 105.673228 L 86.619453 96.203344 L 49.154935 96.203344 Q 49.305849 102.089009 51.682752 106.956001 Q 53.984198 112.426650 62.548595 118.538687 Q 69.981132 123.858422 72.169392 126.159868 Q 75.527239 129.744086 75.527239 134.007420 Q 75.527239 137.478453 73.603080 139.779899 Z M 91.486445 122.839749 L 113.142672 122.839749 L 113.142672 112.653022 L 91.486445 112.653022 Z M 146.721143 96.203344 L 121.518426 96.203344 L 121.518426 151.815328 L 148.532117 151.815328 Q 158.756573 151.664414 163.019907 145.891935 Q 165.585453 142.345445 165.585453 137.402996 Q 165.585453 132.309632 163.019907 129.215886 Q 161.586219 127.480369 158.794301 126.046682 Q 163.057635 124.499808 165.227031 121.141961 Q 167.396426 117.784114 167.396426 112.992580 Q 167.396426 108.050131 164.906337 104.126354 Q 163.321735 101.523080 160.944832 99.749834 Q 158.266101 97.712489 154.625289 96.957917 Q 150.984477 96.203344 146.721143 96.203344 Z M 146.457043 120.689218 L 132.610640 120.689218 L 132.610640 105.861871 L 146.268400 105.861871 Q 149.928076 105.861871 151.965421 106.842815 Q 155.662826 108.653788 155.662826 113.784881 Q 155.662826 118.123672 152.078607 119.746002 Q 150.078990 120.651489 146.457043 120.689218 Z M 152.229522 131.290960 Q 154.493239 132.649190 154.493239 136.157952 Q 154.493239 140.043999 151.474949 141.289044 Q 148.871674 142.156802 144.834712 142.156802 L 132.610640 142.156802 L 132.610640 129.895001 L 146.268400 129.895001 Q 149.928076 129.895001 152.229522 131.290960 Z M 187.317137 137.327539 L 187.317137 96.203344 L 176.413566 96.203344 L 176.413566 137.327539 Z M 187.317137 152.154886 L 187.317137 142.232259 L 176.413566 142.232259 L 176.413566 152.154886 Z M 216.556817 103.862254 L 216.556817 95.826058 L 211.463453 95.637415 Q 203.842272 95.373315 201.050354 98.278418 Q 199.239381 100.127121 199.239381 103.975440 L 199.239381 129.291343 L 193.504631 129.291343 L 193.504631 136.950253 L 199.239381 136.950253 L 199.239381 148.419753 L 209.878851 148.419753 L 209.878851 136.950253 L 216.556817 136.950253 L 216.556817 129.291343 L 209.878851 129.291343 L 209.878851 107.559659 Q 209.878851 105.031841 210.520238 104.409319 Q 211.161624 103.786797 214.444014 103.786797 Q 214.934486 103.786797 215.481551 103.805661 Q 216.028616 103.824525 216.556817 103.862254 Z M 37.930671 14.635116 L 17.444031 14.635116 L 13.595712 3.203344 L 1.447096 3.203344 L 21.292350 58.815328 L 34.421909 58.815328 L 54.116248 3.203344 L 41.514890 3.203344 Z M 34.686010 24.218185 L 27.743944 46.100784 L 20.575506 24.218185 Z M 97.730532 58.739871 L 97.730532 3.203344 L 87.279704 3.203344 L 87.279704 8.900366 Q 84.978258 5.240690 82.035426 3.580630 Q 79.092594 1.920571 74.716074 1.920571 Q 67.509908 1.920571 62.586323 7.749643 Q 57.662738 13.578714 57.662738 22.709040 Q 57.662738 33.235325 62.510866 39.271904 Q 67.358993 45.308483 75.470647 45.308483 Q 79.205780 45.308483 82.110883 43.667288 Q 85.015987 42.026093 86.826961 39.120989 L 86.826961 58.739871 Z M 68.754952 23.501341 Q 68.754952 17.804320 71.018669 14.408744 Q 73.244658 10.975440 77.809821 10.975440 Q 82.374984 10.975440 84.751887 14.371015 Q 87.128790 17.766591 87.128790 23.161784 Q 87.128790 30.707507 83.318199 33.952169 Q 80.979025 35.914057 77.885278 35.914057 Q 73.169201 35.914057 70.962077 32.348702 Q 68.754952 28.783348 68.754952 23.501341 Z M 144.929034 58.739871 L 144.929034 3.203344 L 134.478206 3.203344 L 134.478206 8.900366 Q 132.176761 5.240690 129.233928 3.580630 Q 126.291096 1.920571 121.914576 1.920571 Q 114.708410 1.920571 109.784825 7.749643 Q 104.861241 13.578714 104.861241 22.709040 Q 104.861241 33.235325 109.709368 39.271904 Q 114.557496 45.308483 122.669149 45.308483 Q 126.404282 45.308483 129.309386 43.667288 Q 132.214489 42.026093 134.025463 39.120989 L 134.025463 58.739871 Z M 115.953455 23.501341 Q 115.953455 17.804320 118.217172 14.408744 Q 120.443160 10.975440 125.008323 10.975440 Q 129.573486 10.975440 131.950389 14.371015 Q 134.327292 17.766591 134.327292 23.161784 Q 134.327292 30.707507 130.516701 33.952169 Q 128.177527 35.914057 125.083780 35.914057 Q 120.367703 35.914057 118.160579 32.348702 Q 115.953455 28.783348 115.953455 23.501341 Z M 189.901547 15.276502 Q 189.486533 11.616826 186.090957 7.843964 Q 180.808950 1.845114 171.301338 1.845114 Q 163.453786 1.845114 157.454935 6.900749 Q 151.456085 11.956384 151.456085 23.350427 Q 151.456085 34.027626 156.870142 39.724647 Q 162.284198 45.421669 170.924052 45.421669 Q 176.055144 45.421669 180.167564 43.497509 Q 184.279983 41.573350 186.958715 37.423202 Q 189.373347 33.763526 190.090191 28.934262 Q 190.505205 26.104616 190.429748 20.784881 L 162.284198 20.784881 Q 162.510570 14.597387 166.170246 12.107298 Q 168.396235 10.560425 171.527710 10.560425 Q 174.847829 10.560425 176.922903 12.446856 Q 178.054761 13.465529 178.922519 15.276502 Z M 179.262077 27.877861 Q 178.997977 32.141195 176.677667 34.348319 Q 174.357356 36.555443 170.924052 36.555443 Q 167.188919 36.555443 165.132709 34.216269 Q 163.076499 31.877095 162.548299 27.877861 Z M 218.348926 34.404912 Q 211.859604 34.404912 209.633615 30.179307 Q 208.388571 27.802404 208.388571 22.859955 L 208.388571 3.203344 L 197.560457 3.203344 L 197.560457 44.327539 L 207.822641 44.327539 L 207.822641 37.159101 Q 210.312730 41.271521 212.161433 42.780665 Q 215.179722 45.308483 220.008985 45.308483 Q 220.310814 45.308483 220.518322 45.289619 Q 220.725829 45.270754 221.442673 45.233026 L 221.442673 34.216269 Q 220.424000 34.329455 219.631699 34.367183 Q 218.839398 34.404912 218.348926 34.404912 Z" transform="scale(1.000000,1.000000) translate(133.000000,173.000000)" opacity="1.000000"> fill="currentColor"</path>
    </g>
</svg>
